X:170
M:4/4
L:1/8
K:G
eBBA G2GA | B/c/d Ac BE E/D/E | GAGE DEGA | dBAc BG :| G
|: d | e2ef edBd | g2gf edBc | d2df edef | gfaf g2fg | 
edef edBd | gfgf edBc | dcdf edef | gfaf g3 :|| 

